X: 11034
T: ROAST BEEF OF OLD ENGLAND
%R: jig
B: W. Hamilton "Universal Tune-Book" Vol. 1 Glasgow 1844 p.103 #4
S: http://imslp.org/wiki/Hamilton's_Universal_Tune-Book_(Various)
Z: 2016 John Chambers <jc:trillian.mit.edu>
M: 6/8
L: 1/8
K: F
% - - - - - - - - - - - - - - - - - - - - - - - - -
c |\
f>gf e>fg | a>gf g2e |\
f>gf e>dc | d<Bd c2c |\
d<Bd f>ed | c>BA B2c |
d>ba gfe | f3c2A |\
B>cd e<ce | f3 f2c |\
dba gfe | f3 c2A |\
B>cd e<ce | f3 f2 |]
% - - - - - - - - - - - - - - - - - - - - - - - - -

%%sep 1 1 500
%%sep 1 1 500

